packages/assets/static/images/icons/external-link.svg

<svg width="24" height="24" viewBox="0 0 24 24" xmlns="http://www.w3.org/2000/svg">
<path d="M21.875 9.75C21.875 10.0484 21.7565 10.3345 21.5455 10.5455C21.3345 10.7565 21.0484 10.875 20.75 10.875C20.4516 10.875 20.1655 10.7565 19.9545 10.5455C19.7435 10.3345 19.625 10.0484 19.625 9.75V6.46875L14.0459 12.0478C13.8346 12.2592 13.5479 12.3779 13.2491 12.3779C12.9502 12.3779 12.6635 12.2592 12.4522 12.0478C12.2408 11.8365 12.1221 11.5498 12.1221 11.2509C12.1221 10.9521 12.2408 10.6654 12.4522 10.4541L18.0312 4.875H14.75C14.4516 4.875 14.1655 4.75647 13.9545 4.5455C13.7435 4.33452 13.625 4.04837 13.625 3.75C13.625 3.45163 13.7435 3.16548 13.9545 2.9545C14.1655 2.74353 14.4516 2.625 14.75 2.625H20.75C21.0484 2.625 21.3345 2.74353 21.5455 2.9545C21.7565 3.16548 21.875 3.45163 21.875 3.75V9.75ZM17.75 12C17.4516 12 17.1655 12.1185 16.9545 12.3295C16.7435 12.5405 16.625 12.8266 16.625 13.125V19.125H5.375V7.875H11.375C11.6734 7.875 11.9595 7.75647 12.1705 7.5455C12.3815 7.33452 12.5 7.04837 12.5 6.75C12.5 6.45163 12.3815 6.16548 12.1705 5.9545C11.9595 5.74353 11.6734 5.625 11.375 5.625H5C4.50272 5.625 4.02581 5.82254 3.67417 6.17417C3.32254 6.52581 3.125 7.00272 3.125 7.5V19.5C3.125 19.9973 3.32254 20.4742 3.67417 20.8258C4.02581 21.1775 4.50272 21.375 5 21.375H17C17.4973 21.375 17.9742 21.1775 18.3258 20.8258C18.6775 20.4742 18.875 19.9973 18.875 19.5V13.125C18.875 12.8266 18.7565 12.5405 18.5455 12.3295C18.3345 12.1185 18.0484 12 17.75 12Z"/>
</svg>

<svg viewBox="0 0 24 24" xmlns="http://www.w3.org/2000/svg" aria-hidden="true" fill="currentColor" height="24px" width="24px"><path d="M21.875 9.75a1.125 1.125 0 1 1-2.25 0V6.469l-5.58 5.579a1.127 1.127 0 1 1-1.593-1.594l5.58-5.579H14.75a1.125 1.125 0 0 1 0-2.25h6a1.125 1.125 0 0 1 1.125 1.125zM17.75 12a1.125 1.125 0 0 0-1.125 1.125v6H5.375V7.875h6a1.125 1.125 0 0 0 0-2.25H5A1.875 1.875 0 0 0 3.125 7.5v12A1.875 1.875 0 0 0 5 21.375h12a1.875 1.875 0 0 0 1.875-1.875v-6.375A1.125 1.125 0 0 0 17.75 12"/></svg>
